!! 00000] TT[WS
!!!OTL: Sihuo buzhong caizhu de di
!!!ARE: Asia, China,ÿShanxi Ningwu
!! Ethnic Group: Han
!! WI, 79
!!!SCT: J0097
!!!YEM: Copyright 1995, estate of Helmut Schaffrath.
**kern
*ICvox
*Ivox
*M2/4
*k[b-e-]
*B-:
{8fff
8ddd
16ccc
16ddd
16ccc
16bb-
=1
8gg
8bb-
8.dd
16ff
=2
8dd
8ff
8bb-
8dd
=3
2cc}
=4
{8fff
8ddd
16ccc
16ddd
16ccc
16bb-
=5
8gg
8ff
4gg
=6
8bb-
8gg
16ff
16gg
16ff
16dd
=7
2ff}
==
!!!AGN: Xiaodiao. Suku
!!!ONB: ESAC (Essen Associative Code) Database: CHINA
!!!AMT: simple duple
!!!AIN: vox
!!!EED: Helmut Schaffrath
!!!EEV: 1.0
*-
